X:1
T:Title
%%score { ( 1 3 ) | ( 2 4 ) }
L:1/8
M:6/8
K:A
V:1 treble nm="Grand Piano"
V:3 treble 
V:2 bass 
V:4 bass 
V:1
 z3 z2[Q:1/4=81] [CE] | [Ec]>[DB][CA] [A,C][B,D][CE] | G F2- F2 F | [Fd]>[Fc][FB] c<GF | %4
[M:5/8] [CE]-[CE]- [CE]3 |[M:1/8] [CE] |[M:3/4] [Ec]>[DB] [CA]A [GB][=Gc] | %7
 [Fd][A,DF]- [A,DF]3 [FA]/[^EB]/ | c>A c[^DB] [DF]G | [CA]6 | F>G AA GF | cA F [^Ec]3 | B>B BB FF | %13
[M:13/16] [FA][EG][^DF] z C=D3/2 |[M:3/16] E3/2 |[M:3/4] [Ec]>[DB] [CA]A [GB][=Gc] | %16
 [Fd][A,DF]- [A,DF]3 [FA]/[^EB]/ | c>A c[^DB] [DF]G |[M:7/4] [CA]6 z2 z2 z4 |] %19
V:2
 z3 z2 [A,,A,] | [A,,A,]>[A,,A,][A,,A,] [A,,E,][A,,A,][A,,A,] | %2
 [D,B,D] [D,B,D]2- [D,B,D]2 [D,B,D] | [B,,B,]>[C,^A,][D,B,] [E,=A,E]<[E,B,E][E,G,D] | %4
[M:5/8] [A,,A,]-[A,,A,]- [A,,A,]3 |[M:1/8] [A,,A,] | %6
[M:3/4] [A,,A,]>[A,,A,] [A,,A,][C,A,] [D,A,][E,A,] | [D,A,]D,- D,3 D,/^D,/ | %8
 [E,A,E]>[E,CE] [E,A,E][B,,F,] [B,,B,][E,D] | [A,,E,]6 | F,>G, A,A, G,F, | CA, F, [C,G,]3 | %12
 [F,A,^D]>[F,A,D] [F,A,D][F,A,D] [A,B,D][A,B,D] |[M:13/16] z/ z/ z/ z/ z .G,3/2 z/ z/ z | %14
[M:3/16] [E,G,D]3/2 |[M:3/4] [A,,A,]>[A,,A,] [A,,A,][C,A,] [D,A,][E,A,] | [D,A,]D,- D,3 D,/^D,/ | %17
 [E,A,E]>[E,CE] [E,A,E][B,,F,] [B,,B,][E,D] |[M:7/4] [A,,E,]6 z2 z2 z4 |] %19
V:3
 x6 | x6 | x6 | x6 |[M:5/8] x5 |[M:1/8] x |[M:3/4] x6 | z2 z2 z A, | x6 | x6 | x6 | x6 | x6 | %13
[M:13/16] z/ z/ z/ z/ z E/-E/-E/-E-<E |[M:3/16] x3/2 |[M:3/4] x6 | z2 z2 z A, | x6 |[M:7/4] x14 |] %19
V:4
 x6 | x6 | x6 | x6 |[M:5/8] x5 |[M:1/8] x |[M:3/4] x6 | x6 | x6 | x6 | x6 | x6 | x6 | %13
[M:13/16] [B,,B,][B,,B,][B,,A,]E,-[E,-A,][E,B,]3/2 |[M:3/16] x3/2 |[M:3/4] x6 | x6 | x6 | %18
[M:7/4] x14 |] %19

